X:1
T:Das fünft Hauptstück
T:Georg Vogler
T:Source : Catechismus---Würzburg---J.Volmari---1652. Editor : André Vierendeels (24/09/17).
T:Notes : Original Clefs : C1, F4 Original note values have been halved Text Middle German  
T:Das fünft Hauptstück
T:©
T:©
C:Georg Vogler
Z:©
%%score [ 1 2 ]
L:1/8
Q:1/4=120
M:2/2
K:C
V:1 treble nm="Soprano" snm="S"
V:2 bass nm="Bass" snm="B"
V:1
"^1)" c4 c2 c2 | B2 A2 c2 A2 | G4 c4 | c2 A2 G2 C2 | E2 D2 !fermata!C4 | C4 E2 F2 | G2 G2 A2 A2 | %7
w: Das fünft Haupt-|stück nun hin be-|re:it: Die|Christ- * lich Ge-|rech- tig- keit,|laszt stehn das|bösz und thut das|
w: Sag her, mein|G'sell und machs nit|lang was|soll man flie- hen|ala ein Schlang?|Flie- hen soll|man Las- ter und|
 G4 G4 | A2 c2 B2 A2 | B2 B2 !fermata!c4 | c4 B2 A2 | G2 A2 F2 F2 | E4 G4 | A2 G2 F2 E2 | %14
w: gut: und|wer Ge- recht durchs|Glau- bens hut,|der musz durch|gan- tze Werck noch|sehr ge-|rech- ter wer- den|
w: Sünd? Alls|die uns Men- schen|bringt ge- schwind|umb Leib und|Seel, umb Guth und|Ehr, schei-|den von Gott? O|
 D2 D2 !fermata!C4 |] %15
w: mehr und mehr.|
w: Bösz- heit schwer.|
V:2
"^2)""^1)""^3)" C,4 A,,2 C,2 | E,2 F,2 C,2 D,2 | G,,4 z2 C,2 | A,,2 A,,2 C,2 C,2 | %4
w: Dasz fünft Haupt-|stück nun hin be-|reit: die|Christ- lich Ge- rech-|
w: Da mach die|rech- nung wer jetzt|wöll, nichts|bleibt ¨- brig, al-|
 C,2 G,,2 !fermata!C,4 | C,4 A,,2 D,2 | G,,2 G,,2 D,2 D,2 | G,,4 G,4 | F,2 A,2 G,2 F,2 | %9
w: tig- * keit,|laszt stehn das|bösz und thut das|gut: und|wer Ge- recht durchs|
w: lein die Höll.|Sag wel- ches|seyn die grö- sste|Sünd? Ver-|zieh ni lang, ant-|
 G,2 G,2 !fermata!C,4 | C,4 E,2 F,2 | E,2 A,,2 D,2 D,2 | C,4 C,4 | F,,2 G,,2 A,,2 C,2 | %14
w: Glau- bens hut,|der musz durch|gan- tze Werck noch|sehr ge-|rech- ter wer- den|
w: wort mir gschwind.|Die Todt- sünd|scha- den al- ler-|meist, dar-|nach die Sünd in|
 G,,2 G,,2 !fermata!C,4 |] %15
w: mehr und mehr.|
w: hei- lig Geist.|

